packages/core/assets/Icons/alt_route.svg

<svg viewBox="0 0 20 20" fill="none" xmlns="http://www.w3.org/2000/svg">
<path d="M9.1665 17.5V14.1666C9.1665 13.3889 9.04845 12.8125 8.81234 12.4375C8.57623 12.0625 8.26373 11.6944 7.87484 11.3333L9.06234 10.1458C9.229 10.2986 9.38873 10.4618 9.5415 10.6354C9.69428 10.809 9.84706 10.993 9.99984 11.1875C10.1943 10.9236 10.3922 10.691 10.5936 10.4896C10.795 10.2882 10.9998 10.0903 11.2082 9.89581C11.7359 9.4097 12.2151 8.8472 12.6457 8.20831C13.0762 7.56942 13.3054 6.45137 13.3332 4.85415L12.604 5.58331C12.4512 5.73609 12.2603 5.81248 12.0311 5.81248C11.8019 5.81248 11.604 5.73609 11.4373 5.58331C11.2707 5.41665 11.1873 5.21873 11.1873 4.98956C11.1873 4.7604 11.2707 4.56248 11.4373 4.39581L13.5832 2.24998C13.6665 2.16665 13.7568 2.10762 13.854 2.0729C13.9512 2.03817 14.0554 2.02081 14.1665 2.02081C14.2776 2.02081 14.3818 2.03817 14.479 2.0729C14.5762 2.10762 14.6665 2.16665 14.7498 2.24998L16.9165 4.41665C17.0693 4.56942 17.1491 4.7604 17.1561 4.98956C17.163 5.21873 17.0832 5.41665 16.9165 5.58331C16.7637 5.73609 16.5693 5.81248 16.3332 5.81248C16.0971 5.81248 15.9026 5.73609 15.7498 5.58331L14.9998 4.85415C14.9721 6.84026 14.6665 8.25345 14.0832 9.09373C13.4998 9.93401 12.9165 10.618 12.3332 11.1458C11.8887 11.5486 11.5276 11.941 11.2498 12.3229C10.9721 12.7048 10.8332 13.3194 10.8332 14.1666V17.5C10.8332 17.7361 10.7533 17.934 10.5936 18.0937C10.4339 18.2535 10.2359 18.3333 9.99984 18.3333C9.76373 18.3333 9.56581 18.2535 9.40609 18.0937C9.24637 17.934 9.1665 17.7361 9.1665 17.5ZM5.1665 6.81248C5.11095 6.5347 5.07275 6.22915 5.05192 5.89581C5.03109 5.56248 5.01373 5.21526 4.99984 4.85415L4.24984 5.60415C4.09706 5.75692 3.90609 5.83331 3.67692 5.83331C3.44775 5.83331 3.24984 5.74998 3.08317 5.58331C2.93039 5.43054 2.854 5.23609 2.854 4.99998C2.854 4.76387 2.93039 4.56942 3.08317 4.41665L5.24984 2.24998C5.33317 2.16665 5.42345 2.10762 5.52067 2.0729C5.61789 2.03817 5.72206 2.02081 5.83317 2.02081C5.94428 2.02081 6.04845 2.03817 6.14567 2.0729C6.24289 2.10762 6.33317 2.16665 6.4165 2.24998L8.58317 4.41665C8.74984 4.58331 8.8297 4.77776 8.82275 4.99998C8.81581 5.2222 8.729 5.41665 8.56234 5.58331C8.39567 5.73609 8.20123 5.81248 7.979 5.81248C7.75678 5.81248 7.56234 5.73609 7.39567 5.58331L6.6665 4.87498C6.6665 5.16665 6.68039 5.44095 6.70817 5.6979C6.73595 5.95484 6.76373 6.19442 6.7915 6.41665L5.1665 6.81248ZM6.95817 10.4791C6.68039 10.1875 6.41303 9.8472 6.15609 9.45831C5.89914 9.06942 5.67345 8.59026 5.479 8.02081L7.08317 7.62498C7.22206 7.99998 7.38178 8.31942 7.56234 8.58331C7.74289 8.8472 7.93734 9.08331 8.14567 9.29165L6.95817 10.4791Z" fill="currentColor"/>
</svg>

<svg xmlns="http://www.w3.org/2000/svg" width="20" height="20" fill="none" viewBox="0 0 20 20">
  <path fill="#201F1F" d="M9.166 17.5v-3.333c0-.778-.118-1.354-.354-1.73a5.587 5.587 0 0 0-.937-1.104l1.187-1.187c.167.153.327.316.48.49.152.173.305.357.458.552a5.97 5.97 0 0 1 .594-.698c.201-.202.406-.4.614-.594a9.498 9.498 0 0 0 1.438-1.688c.43-.639.66-1.757.687-3.354l-.729.73a.777.777 0 0 1-.573.228.85.85 0 0 1-.594-.229.811.811 0 0 1-.25-.593c0-.23.084-.428.25-.594l2.146-2.146a.73.73 0 0 1 .271-.177.922.922 0 0 1 .313-.052c.11 0 .215.017.312.052a.73.73 0 0 1 .27.177l2.167 2.167a.814.814 0 0 1 .24.573.776.776 0 0 1-.24.593.79.79 0 0 1-.583.23.79.79 0 0 1-.583-.23L15 4.854c-.028 1.986-.334 3.4-.917 4.24-.583.84-1.167 1.524-1.75 2.052a7.855 7.855 0 0 0-1.083 1.177c-.278.382-.417.996-.417 1.844V17.5c0 .236-.08.434-.24.594a.806.806 0 0 1-.593.24.806.806 0 0 1-.594-.24.806.806 0 0 1-.24-.594Zm-4-10.688a6.877 6.877 0 0 1-.114-.916A49.09 49.09 0 0 1 5 4.854l-.75.75a.777.777 0 0 1-.573.23.811.811 0 0 1-.594-.25A.79.79 0 0 1 2.854 5a.79.79 0 0 1 .23-.583L5.25 2.25a.731.731 0 0 1 .27-.177.922.922 0 0 1 .313-.052c.111 0 .215.017.313.052a.731.731 0 0 1 .27.177l2.167 2.167a.763.763 0 0 1 .24.583.839.839 0 0 1-.844.812.836.836 0 0 1-.583-.229l-.73-.708c0 .292.014.566.042.823.028.257.056.496.083.719l-1.625.395Zm1.792 3.667a7.348 7.348 0 0 1-.802-1.02 6.32 6.32 0 0 1-.677-1.438l1.604-.396a4.403 4.403 0 0 0 1.063 1.667l-1.188 1.187Z"/>
</svg>
